X: 1
T: Drummer's Call v.1
P: piffero primo a0859
O: Camp Dupont
%R: march, reel
F: http://ancients.sudburymuster.org/mus/sng/pdf/drummersC0.pdf
Z: 2020 John Chambers <jc:trillian.mit.edu>
M: 2/4
L: 1/16
K: G
d2 |\
afdf g3e | dBAG F3D |\
(EG)(FA) (GB)(Ac) | (Bd)(^ce) d2
d/e/f/g/ |\
afdf g3e | dBAG F3D |\
(GB)(Ac) (Bd)(gB) | cedF G2 :|


